X:172
T:Je gart le bois
C:Manuscript de Montpellier (XIIIe siècle)
R:Motet
M:6/8
L:1/8
Q:1/4=132
K:G 
V:1
e | g2e gag | f2d c2e | g2e g2f | 
edc d2z | g2a b2g | a3 bag | f2e g2f | 
ede d2z | c3 d2e | g2f e2z | g2a gfe | 
d3 d2c | e2d cBc | d3 e2g | f2d efg | 
f3 g2f | ede c2z | g2f edc | d2e g2e | 
gag f/2g/2fd | e3 |]
V:2
z | \
G3 A2z | Bde g2z | g3 d2z | 
eed d2z | d3 B2z | ddA B2z | B3 G2z | 
BAB d2z | e3 g2z | gde e2z | d3 d2z | 
dBd d2z | A3 B2z | BBG A2z | B3 A2z | 
Bdd d2z | e3 g2z | gde e2z | d3 d2z | 
dBd d2z | A3 |]
% Tempo Track





